**kern	**kern
*staff2	*staff1
*clefF4	*clefG2
*k[b-]	*k[b-]
*M3/8	*M3/8
*F:	*F:
=	=
16AALL)	16r
32r	16f 16cc
(32GGJ	.
16FF)	16r
32r	16f 16cc 16ff
(32GGJ	.
16AA)	16r
32r	16f 16cc 16ff
(32FFJJJ	.
=82	=82
16BB-LL)	16r
32r	16f 16dd 16ff
(32FFJ	.
16AA)	16r
32r	16f 16cc 16ff
(32FFJ	.
16AA)	16r
32r	16f 16cc 16ff
(32FFJJJ	.
=83	=83
16AALL)	16r
32r	16f 16cc 16ff
(32GGJ	.
16FF)	16r
32r	16f 16cc 16ff
(32GGJ	.
16AA)	16r
32r	16f 16cc 16ff
(32FFJJJ	.
=84	=84
16BB-LL)	16r
32r	16f 16dd 16ff
(32FFJ	.
16AA)	16r
32r	16f 16cc 16ff
(32FFJ	.
16AA)	16r
32r	16f 16cc 16ff
(32FFJJJ	.
=85	=85
16CLL)	16r
32r	16b- 16cc 16gg
(32CCJ	.
16EE)	16r
32r	16g 16cc 16ee
(32GGJ	.
16C)	16r
32r	16e 16g 16cc
(32EJJJ	.
=86	=86
16GLL)	16r
32r	16c 16e 16b-
(32GJJJ	.
4B-;)	16r
.	8.c; 8.e; 8.g;
=87	=87
16AALL	16r
32r	16f 16ff
(32CJ	.
16F)	16r
32r	16f
(32AAJ	.
16C)	16r
32r	16f
(32FJJJ	.
=88	=88
16BB-LL)	16r
32r	16f 16g
(32DJ	.
16G)	16r
32r	16f 16g
(32BBJ	.
16D)	16r
32r	16f 16g
(32GJJJ	.
=89	=89
16CLL)	16r
32r	16f 16a
(32cJ	.
16C)	16r
32r	16e 16b-
(32cJ	.
16C)	16r
32r	16e 16g
(32cJJJ	.
=90	=90
8F)	16f'LL
.	(16cc
8r	16b
.	16cc
8r	16dd
.	16ccJJ)
=91	=91
*-	*-
